X:1
T:Clear wells spring not
T:Thomas Weelkes
T:Clear wells spring not
T:Last Part
C:Thomas Weelkes
%%score [ 1 2 3 ]
L:1/8
Q:1/4=70
M:4/4
K:G
V:1 treble nm="Soprano 1" snm="S 1"
V:2 treble nm="Soprano 2" snm="S 2"
V:3 tenor nm="Tenor" snm="T"
V:1
 z8 | d6 d2 | g4 d4 | e4 d3 e | f2 g4 f2 | g4 =f4 | e4 d4- | d4 c4- | c4 B4- | B4 A4- | %10
w: |Clear wells|spring not,|clear wells _|spring _ _|not cheer-|ful- ly,|_ spring|_ not|_ cheer-|
 A2 ^G2 A4- | A4 G4- | G4 F4 | G2 d4 d2 | g4 d4 | e4 d3 e | f2 g4 f2 | g4 =f4 | e4 d4- | d4 c4- | %20
w: * ful- ly,|_ cheer-|* ful-|ly, Herds stand|weep- ing,|herds stand _|weep- * *|ing fear-|ful- ly,|_ fear-|
 c4 B4- | B4 A4- | A2 ^G2 A4- | A4 G4- | G4 F4 | G8 |[M:3/4][Q:3/4=105] d4 d2 | e4 e2 | d4 g2 | %29
w: * ful-|* ly,|_ _ fear-||* ful-|ly.|All our|plea- sures|known to|
 f2 e4 | f4 z2 | g3 =f ed | c2 A2 d2- | dc BA GG | A3 G A2 | G2 G3 A | Bc d2 DE | FG A2 AB | %38
w: us, poor|swains,|All our mer- ry|meet- ings, All|_ our mer- ry meet- ings|on _ the|plains, All our|eve- ning sports, All our|eve- ning sports, All our|
 cd e2 c2- | c2 B A2 ^G |[M:4/4][Q:3/4=70] A6 B2 | ^c4 d4- | d4 c4 | B4 e4- | e4 d4- | d4 c4- | %46
w: eve- ning sports, All|_ our eve- ning|sports from|us _|_ are|fled, from|_ us|_ are|
 c4 _B4 | A8 | D4 G4- | G4 =F4 | E8 | F8 | F6 F2 | F4 G4 | F8 | z4 A4- | A4 G4- | G2 G2 F4 | z8 | %59
w: _ _|fled,|from us|_ _|are|fled,|All our|loves are|lost,|for|_ love|_ is dead.||
 F8 | F8 | z4 G4 | G4 F4- | F4 E4- | E2 E2 E4- | E4 A4 | ^G2 G4 A2 | B2 B2 ^c2 c2- | c2 d2 e2 e2 | %69
w: Fare-|well!|Fare-|well, sweet|_ lass!|_ the like|_ ne'er|was, For a|sweet con- tent, For|_ a sweet con-|
 A2 d4 d2 | e2 e2 f4- | f4 d4 | g4 f4 | e6 e2 | f6 d2 | c4 B4 | A6 A2 | B8 | z8 | z2 B2 B2 A2 | %80
w: tent, For a|sweet con- tent,|_ the|cause of|all my|woe, the|cause of|all my|woe;||must live a-|
 B2 G2 G2 F2 | G4 G4 | G6 G2 | G8 | z2 e2 e2 d2 | e2 =f2 e3 e | d2 z2 z4 | z8 | z4 =f4- | %89
w: lone, must live a-|lone, Poor|Co- ri-|don|must live a-|lone, must live a-|lone,||O-|
 f2 e2 d2 d2 | ^c4 d4 | B8 | z4 g4- | g2 =f2 e2 e2 | d4 ^c4 | d4 A4 | A4 d4- | d2 c2 B2 B2 | %98
w: * ther help for|him there's|none,|O-|* ther help for|him, I|know, there's|none, O-|* ther help for|
 A4 G4 | F4 A4- | A2 G2 G4- | G4 F4 | G8 |] %103
w: him, I|know, there's|_ none, there's|_ _|none.|
V:2
 z8 | z8 | G6 G2 | c4 G4 | A2 B2 A4 | B4 A4 | G4 A4 | B4 A4- | A4 G4 | ^G4 A4 | B4 c4- | c4 B4 | %12
w: ||Sweet birds|sing not,|sweet birds sing|not cheer-|ful- ly,|cheer- *|* ful-|ly, sing|not cheer-||
 A8 | B8 | z2 G4 G2 | c4 G4 | A2 B2 A4 | B4 A4 | G4 A4 | B4 A4- | A4 G4 | ^G4 A4 | B4 c4- | c4 B4 | %24
w: ful-|ly,|Flocks all|sleep- ing,|flocks all sleep-|ing fear-|ful- ly,|fear- *|* ful-|ly, sleep-|ing fear-||
 A8 | B8 |[M:3/4] B4 B2 | c4 c2 | B3 A Bc | d4 ^c2 | d2 d3 c | BA G2 G2 | A3 G FE | D4 E2 | %34
w: ful-|ly.|All our|plea- sures|known _ to _|us, poor|swains, All our|mer- ry meet- ings,|All our mer- ry|meet- ings|
 F3 G F2 | G4 G2- | GA Bc d2 | DE FG A2 | AB cd e2 | EF ^GA B2 |[M:4/4] ^c6 d2 | e4 =f4- | f4 e4 | %43
w: on _ the|plains, All|_ our eve- ning sports,|All our eve- ning sports,|All our eve- ning sports,|All our eve- * ning|sports from|us _|_ are|
 d4 g4- | g4 =f4 | e4 a4- | a4 g4- | g4 =f4- | f4 e4- | e4 d4- | d4 ^c4 | d8 | A6 A2 | A4 _B4 | %54
w: fled, are|_ _|fled, from|_ us|_ are|_ fled,|_ are|_ _|fled,|All our|loves are|
 A8 | z4 c4- | c4 _B2 B2 | A8 | A8 | A8 | z4 B4 | B8 | z4 ^d4- | d4 e4- | e2 B2 c4- | c4 c4 | %66
w: lost,|for|_ love is|dead.|Fare-|well!|Fare-|well,|sweet|_ lass!|_ the like|_ ne'er|
 B4 z4 | z4 z2 e2- | e2 f2 ^g2 g2 | a2 A4 B2 | ^c2 c2 d4- | d4 f4 | e4 d2 d2- | d2 ^cB c4 | d6 B2 | %75
w: was,|For|_ a sweet con-|tent, For a|sweet con- tent,|_ the|cause of all|_ _ _ my|woe, the|
 A2 A2 G4- | G4 F4 | G4 d4 | d6 d2 | d8 | z2 B2 B2 A2 | B8 | z8 | z2 e2 e2 d2 | e2 c2 c2 B2 | %85
w: cause of all|_ my|woe; Poor|Co- ri-|don|must live a-|lone,||must live a-|lone, must live a-|
 c2 A2 A3 A | A2 A2 A2 A2 | A8- | A4 A4 | A8- | A4 F4 | G4 g4- | g2 =f2 e2 e2 | d4 c2 B2 | A4 G4 | %95
w: lone, Poor Co- ri-|don must live a-|lone,|_ must|live|_ a-|lone, O-|* ther help for|him, I _|know, there's|
 F8- | F4 G4 | A4 d4- | d2 c2 B2 B2 | A4 c4 | B8 | A8 | G8 |] %103
w: none,|_ there's|none, O-|* ther help for|him, I|know,|there's|none.|
V:3
 z8 | z8 | z8 | z8 | D6 D2 | G4 D4 | E4 F4 | G4 A4 | F4 G4 | E8- | E4 C4 | D8- | D8 | G,8- | G,8 | %15
w: ||||Loud bells|ring not|cheer- *|* ful-|ly, ring|not|_ cheer-|ful-||ly,|_|
 z8 | D6 D2 | G4 D4 | E4 F4 | G4 A4 | F4 G4 | E8- | E4 C4 | D8- | D8 | G,8 |[M:3/4] G,4 G,2 | %27
w: |Nymphs back|creep- ing|fear- ful-|ly, fear-|ful- ly,|fear-||ful-||ly.|All our|
 C4 C2 | G3 F E2 | D2 A4 | D4 G2- | G=F ED C2 | C2 D3 C | B,A, G,2 G,2 | D3 E D2 | G,6 | %36
w: plea- sures|known _ to|us, poor|swains, All|_ our mer- ry meet-|ings, All our|mer- ry meet- ings|on _ the|plains,|
 G,3 A, B,C | D2 DE FG | A2 A,B, CD | E6 |[M:4/4] A,8 | A,4 D4 | B,4 C4 | G,8 | A,8- | A,8 | D8- | %47
w: All our eve- ning|sports, All our eve- ning|sports, All our eve- ning|sports|from|us are|fled, from|us|are|_|fled,|
 D8 | B,4 C4 | A,8- | A,8 | D,8 | D6 D2 | D4 G,4 | D8 | C4 C2 C2 | D8- | D8 | z8 | D8 | D8 | %61
w: _|from us|are|_|fled,|All our|loves are|lost,|for love is|dead.|_||Fare-|well!|
 z4 E4 | E4 B,4- | B,4 ^G,4- | G,2 ^G,2 A,4- | A,4 A,4 | E2 E4 F2 | ^G2 G2 A4- | A4 E2 E2 | F6 G2 | %70
w: Fare-|well, sweet|_ lass!|_ the like|_ ne'er|was, For a|sweet con- tent,|_ For a|sweet con-|
 E4 D4- | D4 D4- | D2 ^C2 D4 | A,6 A,2 | D6 G,2 | A,4 B,2 C2 | D2 C2 D4 | G,8 | z8 | z2 G2 G2 F2 | %80
w: tent, _|_ the|_ cause of|all my|woe, the|cause of _|all _ my|woe;||must live a-|
 G2 G,2 B,C D2 | G,8 | z8 | z2 C2 C2 B,2 | C3 D E=F G2 | C2 D2 D2 ^C2 | D2 x6 | z4 =F4- | %88
w: lone, must live _ a-|lone,||must live a-|lone, must live _ a-|lone, must live a-|lone,|O-|
 F2 E2 D2 D2 | ^C4 D4 | A,4 D4 | G,6 A,2 | B,4 C4 | B,4 C4 | D4 E2 E2 | D4 D4- | D2 C2 B,2 B,2 | %97
w: * ther help for|him, I|know, there's|none, I|know, there's|none, I|know, _ there's|none, O-|* ther help for|
 A,4 G,4 | F,4 G,4 | D4 A,4 | B,6 C2 | D8 | G,8 |] %103
w: him, I|know, there's|none, I|know, _|there's|none.|

